X:1
T:To my request and earnest cry
T:To my request and earnest cry (Bennett Mintern Swaffield)
C:Bennett Mintern Swaffield
Z:p185, Sacred Harmony, ed.
Z:R. Garbett, London: (1818)
%%score [ 1 2 3 4 ]
L:1/8
M:2/2
K:Eb
V:1 treble nm="Soprano" snm="S."
V:2 treble nm="Alto" snm="A."
V:3 treble-8 transpose=-12 nm="Tenor" snm="T."
V:4 bass nm="Bass" snm="B."
V:1
 E4 | B4 A4 | G4 B4 | e4 _d4 | c4 z2 B2 | E4 G4 | A4 G4 | (G2 F2) || %8
w: My|tongue the|prai- ses|of thy|word Shall|thank- ful-|ly re-|sound, _|
w: To|my re-|quest and|ear- nest|cry At-|tend, O|gra- cious|Lord; _|
w: Then|shall my|grate- ful|lips re-|turn The|tri- bute|of their|praise, _|
"^DUET [Two sopranos or soprano and alto]" B4 | c4 (B2 A2) | G4 (G2 B2) | (c2 d2 e2) (dc) | B4 c4 | %13
w: Be-|cause thy _|pro- mi- *|ses _ _ are _|all With|
w: In-|spire my _|heart with _|heav’n- * * ly _|skill, Ac-|
w: When|thou thy _|coun- sels _|hast _ _ re- *|veal’d And|
 d4 e4 | d4 c4 | B6 || d2 | e6 B2 | c4 B4 | A4 G4 | F4 d4 | (e2 B2) (c2 A2) | G4 F4 | E8 |] %24
w: truth and|jus- tice|crown’d,|Be-|cause thy|pro- mi-|ses are|all With|truth _ and _|jus- tice|crown’d.|
w: cord- ing|to thy|word;|In-|spire my|heart with|heav’n- ly|skill, Ac-|cord- * ing _|to thy|word.|
w: taught me|thy just|ways,|When|thou thy|coun- sels|hast re-|veal’d And|taught _ me _|thy just|ways.|
V:2
 E4 | G4 F4 | E4 G4 | A4 G4 | A4 z2 E2 | E4 E4 | D4 E4 | (E2 D2) || G4 | A4 (G2 F2) | E4 (E2 G2) | %11
w: My|tongue the|prai- ses|of thy|word Shall|thank- ful-|ly re-|sound, _|Be-|cause thy _|pro- mi- *|
w: To|my re-|quest and|ear- nest|cry At-|tend, O|gra- cious|Lord; _|In-|spire my _|heart with _|
w: Then|shall my|grate- ful|lips re-|turn The|tri- bute|of their|praise, _|When|thou thy _|coun- sels _|
 (A2 B2 c2) (BA) | G4 A4 | F4 G4 | F4 E4 | D6 || F2 | G6 E2 | A4 G4 | F4 E4 | D4 F4 | G4 (E2 F2) | %22
w: ses _ _ are _|all With|truth and|jus- tice|crown’d,|Be-|cause thy|pro- mi-|ses are|all With|truth and _|
w: heav’n- * * ly _|skill, Ac-|cord- ing|to thy|word;|In-|spire my|heart with|heav’n- ly|skill, Ac-|cord- ing _|
w: hast _ _ re- *|veal’d And|taught me|thy just|ways,|When|thou thy|coun- sels|hast re-|veal’d And|taught me _|
 E4 D4 | E8 |] %24
w: jus- tice|crown’d.|
w: to thy|word.|
w: thy just|ways.|
V:3
 G4 | B4 d4 | e4 _d4 | c4 B4 | A4 z2 B2 | c4 B4 | B4 B4 | B4 || z4 | z8 | z8 | z8 | z8 | z8 | z8 | %15
w: My|tongue the|prai- ses|of thy|word Shall|thank- ful-|ly re-|sound,||||||||
w: To|my re-|quest and|ear- nest|cry At-|tend, O|gra- cious|Lord;||||||||
w: Then|shall my|grate- ful|lips re-|turn The|tri- bute|of their|praise,||||||||
 z4 z2 || B2 | B6 e2 | d4 e4 | c4 c4 | d4 B4 | B4 A4 | B4 A4 | G8 |] %24
w: |Be-|cause thy|pro- mi-|ses are|all With|truth and|jus- tice|crown’d.|
w: |In-|spire my|heart with|heav’n- ly|skill, Ac-|cord- ing|to thy|word.|
w: |When|thou thy|coun- sels|hast re-|veal’d And|taught me|thy just|ways.|
V:4
 E,4 | E,4 F,4 | G,4 E,4 | E,4 E,4 | A,4 z2 G,2 | A,4 G,4 | F,4 E,4 | B,,4 ||"^[Inst.]" E,4 | E,8 | %10
w: My|tongue the|prai- ses|of thy|word Shall|thank- ful-|ly re-|sound,|||
w: To|my re-|quest and|ear- nest|cry At-|tend, O|gra- cious|Lord;|||
w: Then|shall my|grate- ful|lips re-|turn The|tri- bute|of their|praise,|||
 E,4 E,4 | A,4 A,,4 | E,4 A,4 | (B,2 A,2) (G,2 E,2) | F,4 F,,4 | B,,6 || %16
w: ||||||
w: ||||||
w: ||||||
"^Notes:This edition is based on the first publication of this psalm tune, on p185 of Richard Garbett's Sacred Harmony (1818),where it is attributed to ’Swaffield’.Verses after the first are printed after the music in the source, but have been underlaid here.The two vocal parts of the ‘duet’ in bars 7-14 are both given on the soprano staff in Sacred Harmony.A keyboard accompaniment given in Sacred Harmony has been omitted except for the instrumental bass part inbars 7-14, which is taken from the keyboard left-hand part: other than this, the accompaniment doubles the vocal parts.The tune was republished in 1822 on p27 of Bennett Mintern Swaffield’s own collection, Twenty Five Original Melodies." (B,A,) | %17
w: Be- *|
w: In- *|
w: When _|
 G,6 G,2 | F,4 G,4 | A,4 =A,4 | B,4 (B,2 A,2) | (G,2 E,2) (A,2 F,2) | B,4 B,,4 | E,8 |] %24
w: cause thy|pro- mi-|ses are|all With _|truth _ and _|jus- tice|crown’d.|
w: spire my|heart with|heav’n- ly|skill, Ac- *|cord- * ing _|to thy|word.|
w: thou thy|coun- sels|hast re-|veal’d And _|taught _ me _|thy just|ways.|

